client/src/assets/public/images/icons/close.svg

<?xml version="1.0" encoding="UTF-8"?>
<svg width="292px" height="292px" viewBox="0 0 292 292" version="1.1" xmlns="http://www.w3.org/2000/svg" xmlns:xlink="http://www.w3.org/1999/xlink">
    <!-- Generator: Sketch 48.2 (47327) - http://www.bohemiancoding.com/sketch -->
    <title>Shape</title>
    <desc>Created with Sketch.</desc>
    <defs></defs>
    <g id="Page-1" stroke="none" stroke-width="1" fill="none" fill-rule="evenodd">
        <g id="close_red" fill="#484848" fill-rule="nonzero">
            <path d="M289.343146,21.1411458 L270.858854,2.65685425 C267.73466,-0.46734008 262.66934,-0.46734008 259.545146,2.65685425 L146,116.202 L32.4548542,2.65685425 C29.3306599,-0.46734008 24.2653401,-0.46734008 21.1411458,2.65685425 L2.65685425,21.1411458 C-0.46734008,24.2653401 -0.46734008,29.3306599 2.65685425,32.4548542 L116.202,146 L2.65685425,259.545146 C-0.46734008,262.66934 -0.46734008,267.73466 2.65685425,270.858854 L21.1411458,289.343146 C24.2653401,292.46734 29.3306599,292.46734 32.4548542,289.343146 L146,175.798 L259.545146,289.343146 C262.66934,292.46734 267.73466,292.46734 270.858854,289.343146 L289.343146,270.858854 C292.46734,267.73466 292.46734,262.66934 289.343146,259.545146 L175.798,146 L289.343146,32.4548542 C292.46734,29.3306599 292.46734,24.2653401 289.343146,21.1411458 Z" id="Shape"></path>
        </g>
    </g>
</svg>

<svg xmlns="http://www.w3.org/2000/svg" width="292" height="292"><path d="M289.343 21.14L270.86 2.657a8 8 0 0 0-11.314 0L146 116.202 32.455 2.657a8 8 0 0 0-11.314 0L2.657 21.14a8 8 0 0 0 0 11.314L116.202 146 2.657 259.545a8 8 0 0 0 0 11.314l18.484 18.484a8 8 0 0 0 11.314 0L146 175.798l113.545 113.545a8 8 0 0 0 11.314 0l18.484-18.484a8 8 0 0 0 0-11.314L175.798 146 289.343 32.455a8 8 0 0 0 0-11.314z" fill="#484848" fill-rule="nonzero"/></svg>
